X:091 
T:Jenny Dang the Weaver (reel) 
B:CRE3.139 (Phlanc SinÃÂÃÂÃÂÃÂ©ad an FÃÂÃÂÃÂÃÂ­odÃÂÃÂÃÂÃÂ³ir)
F:file ID: cre.3/091jenny_d
N:This is the "ancestor" of "Furze Bush"/"Longford Spinster"
R:reel
M:C
L:1/8
Q:180
K:D
e|dBBA (3BcB AB|dBB2 fgfe|dBBA BcdB|ABde f2ec|
dBB2 dB (3dcB|dB (3dcB f2fg|aA A/G/A ABAF|ABde f2ec||
%B
d2fd efge|defa g2fe|d2fd efge|fgaf g2fe|
d2fd efge|defa g3a|bgaf gfed|faaf gfed||
%C
fa~a2 fa~a2|faaf gfed|gb~b2 gb~b2|gbbf gfed|
fa~a2 fa~a2|faaf g3a|bgaf gfed|faaf gfed||\
"coda" dBBA HB4||

%%%

